X: 49
T: The Wind That Shakes The Barley
M: 4/4
L: 1/8
R: reel
K:Dmaj
|"D"A2AB AFED|"G"B2BA BcdB|"D"A2AB AFED|"G"gfed BcdB|
"D"A2AB AFED|"G"B2BA BcdB|"D"A2AB AFED|"G"gfed Bcde||
"D"f2fd "G"g2ge|"D"f2fd "G"Bcde|"D"f2fd "G"g2fg|"D"afed Bcde|
"D"f2fd "G"g2ge|"D"f2fd "G"Bcde|"G"defg "D"afbf|"G"gfed BcdB||


